assets/img/braze_icons/plus-circle.svg

<svg fill="none" height="24" viewBox="0 0 24 24" width="24" xmlns="http://www.w3.org/2000/svg"><path clip-rule="evenodd" d="m12 1c-6.07513 0-11 4.92487-11 11 0 6.0751 4.92487 11 11 11 6.0751 0 11-4.9249 11-11 0-6.07513-4.9249-11-11-11zm0 6c.5523 0 1 .44772 1 1v3h3c.5523 0 1 .4477 1 1s-.4477 1-1 1h-3v3c0 .5523-.4477 1-1 1s-1-.4477-1-1v-3h-3c-.55228 0-1-.4477-1-1s.44772-1 1-1h3v-3c0-.55228.4477-1 1-1z" fill="#801ed7" fill-rule="evenodd"/></svg>

<svg width="24" height="24" viewBox="0 0 24 24" fill="none" xmlns="http://www.w3.org/2000/svg">
<path fill-rule="evenodd" clip-rule="evenodd" d="M12 1C5.92487 1 1 5.92487 1 12C1 18.0751 5.92487 23 12 23C18.0751 23 23 18.0751 23 12C23 5.92487 18.0751 1 12 1ZM12 7C12.5523 7 13 7.44772 13 8V11H16C16.5523 11 17 11.4477 17 12C17 12.5523 16.5523 13 16 13H13V16C13 16.5523 12.5523 17 12 17C11.4477 17 11 16.5523 11 16V13H8C7.44772 13 7 12.5523 7 12C7 11.4477 7.44772 11 8 11H11V8C11 7.44772 11.4477 7 12 7Z" fill="#801ED7"/>
</svg>
